X: 24359
T: Lounge Bar, The
R: jig
M: 6/8
K: Dmajor
|:FDF E2D-|DFA d2c|BGB AFD|EGF E2D|
f,DF E2D-|DFA d2c|BGB AFD|1 E2D- D3:|2 E2D- DFA||
d2d- dcA|F3 FEF|GBd- dcA|E3 EDE|
F2F- FED|F3 FEF|GAB- BAG|F3 DFA|
d2d- dcA|F3 FEF|GBd- dcA|E3 ede|
f2f- fed|B3 BAB|cde- efed3||
|:dBd c2B-|Bdf e2c|dcB AcB|AFD E2D|
dBd c2B-|Bdf e2c|dcB AFD|1 E2D- D3:|2 E2D- DFA||
d2d- dcA|F3 FEF|GBd- dcA|E3 EDE|
F2F- FED|F3 FEF|GAB- BAG|F3 DFA|
d2d- dcA|F3 FEF|GBd- dcA|E3 ede|
f2f- fed|B3 BAB|cde- efed3||

